X:101
T:Duenna THO4.101, The
M:6/8
L:1/8
Z:vmp. Peter Dunk 2010/11.from a transcription by Fynn Titford-Mock 2007
B:Thompson's Compleat Collection of 200 Favourite Country Dances Volume IV.
Q:3/8=100
K:D
A|:dA(f e)cA|BF(d c)AF|GD(B A)FD|CEE E2 A|\
dA(f e)cA|BF(d c)AF|GD(B A)dD|{F}E3D3:|
|:(g2 e)(f2 d)|(c2 A)(d2 f)|(g2 e)(f2 d)|cee e2 e|\
(g2 e)(f2 d)|(c2 A)(d2 f)|(g2 e)(f2 d)|cee e2 A|
dA(f e)cA|BF(d c)AF|GD(B A)FD|CEE E2 A|\
dA(f e)cA|BF(d c)AF|GD(B A)dD|{F}E3D3:|
